X:111
T:Kenny Gilles of Portnalong #1 
C:Joe Buchanan's Scottish Tome - Page 137.0
I:137 0
C:C. MacFarajnar
R:Jig
Z:Carl Allison
L:1/8
M:6/8
K:A
e | "A" A>AA e2 c | "A" e>fa f2 e | "D" f>aa "A" A>AA | "Bm" f>ec "E7" c>BB | 
"A" A>AA e2 c | "A" e>fa "A7" f2 e | "A" e>ff f>ec | "E7" B>AA "A" {B}A2 :|
e | "A" a3 AAA | "A" c>ea f>ee | "D" f>aa "A" A>AA | "Bm" f>ec "E7" c>BB | 
"A" a3 A>AA | "A" c>ea f2 e | "A" e>ff f>ec | "E7" B>AA "A" {B}A2 e |
"A" a3 A>AA | "A" c>ea f>ee | "D" f>aa "A" A>AA | "Bm" f>ec "E7" c>BB | 
"A" a3 A>AA | "A" c>ea f2 e | "A" e>ff f>ec | "E7" B>AA "A" {B}A2 |
e | "A" A>AA c>Bc | "A" A>eA f>ee | "D" f>ga "A" A>AA | "Bm" f>ec "E7" c>BB | 
"A" A>AA c>Bc | "A" A>eA f>ee | "A" e>ff f>ec | "E7" B>AA "A" {B}A2 :|
f | "A" c2 e a>ga | "A" A>ce f>ee | "D" f>aa "A" A>AA | "Bm" f>ec "E7" c>BB | 
"A" c2 e a>ga | "A" A>ce f>ee | "A" f>aa f>ec | "E7" B>AA "A" {B}A2 f |
"A" c2 e a>ga | "A" A>ce fee | "D" f>aa "A" A>AA | "Bm" f>ec "E7" c>BB | 
"A" A>AA c>Bc | "A" A>eA f>ee | "A" e>ff f>ec | "E7" B>AA "A" {B}A2 |]

